X: 35
T: Grandfather's Clock v.1
P: piffero primo a0013
O: Henry C. Work
F: http://ancients.sudburymuster.org/mus/med/pdf/fyf05F.pdf
Z: 2020 John Chambers <jc:trillian.mit.edu>
M: 2/4
L: 1/16
K: D
A2 |\
d2cd e2de | f2gf B2ee | d2d2 c2Bc | defg a2 A2 |\
d2cd e2de | f2gf B2ee | d2d2 c2Bc | d4 z2 :|
|: df |\
agfe d2d2 | edcB A2df | a2f2 d2cd | e4 z2AA |\
."^>"d2z2 ."^>"e3z2 | ffgf B2ee | d2d2 c2Bc |d4 z2 :|
|: AA |\
d2AA B2A2 | .F2.A2 .F2.A2 | d2AA B2A2 | .F2.A2 .F2.A2 |\
."^>"d2z2 ."^>"e3z2 | ffgf B2ee | d2d2 c2Bc |d4 z2 :|


